X:1
T: Down the River
C:
R:Jig
Q:180
K:G
M:6/8
L:1/16
c2|d2B2G2 G2B2d2|c2A2F2 F2A2c2|B2c2d2 e2a2g2|f2e2d2 c2B2A2|d2B2G2 G2B2d2|c2A2F2 A2B2c2|B2g2B2 c2A2F2|A2G2G2 G4c2|
d2B2G2 G2B2d2|c2A2F2 F2A2c2|B2c2d2 e2a2g2|f2e2d2 c2B2A2|d2B2G2 G2B2d2|c2A2F2 A2B2c2|B2g2B2 c2A2F2|A2G2G2 G4B2|
G2g2f2 g2b2a2|g2d2c2 B2A2G2|G2g2f2 b2a2g2|f2e2f2 g4A2|G2g2=f2 d2f2d2|c2A2G2 F2G2A2|=f2e2d2 c2A2F2|A2G2G2 G4B2|
G2g2f2 g2b2a2|g2d2c2 B2A2G2|G2g2f2 b2a2g2|f2e2f2 g4A2|G2g2=f2 d2f2d2|c2A2G2 F2G2A2|=f2e2d2 c2A2F2|A2G2G2 G4||
